X: 212
T:Besuthian
G:New Year guising song from Banff
S:Katherine Campbell, The Fiddle in Scottish Culture, 2007
M:6/8
L:1/8
Q:3/8=92
K:EDor
c|d2c BBA|Bcd F2
F|E3  D2E|F3  A2
A|A2d F2E|D2E FF
A|E2E FEA|B3- B2|]

This tune is in mixolydian/major hexatonic but ends on the fourth
below the tonal centre:

